src/icons/solid/credit-card.svg

<svg width="20" height="20" viewBox="0 0 20 20" fill="none" xmlns="http://www.w3.org/2000/svg">

<path d="M4 4C2.89543 4 2 4.89543 2 6V7H18V6C18 4.89543 17.1046 4 16 4H4Z" fill="#4A5568"/>
<path fill-rule="evenodd" clip-rule="evenodd" d="M18 9H2V14C2 15.1046 2.89543 16 4 16H16C17.1046 16 18 15.1046 18 14V9ZM4 13C4 12.4477 4.44772 12 5 12H6C6.55228 12 7 12.4477 7 13C7 13.5523 6.55228 14 6 14H5C4.44772 14 4 13.5523 4 13ZM9 12C8.44772 12 8 12.4477 8 13C8 13.5523 8.44772 14 9 14H10C10.5523 14 11 13.5523 11 13C11 12.4477 10.5523 12 10 12H9Z" fill="#4A5568"/>
</svg>

<svg xmlns="http://www.w3.org/2000/svg" viewBox="0 0 20 20" fill="currentColor">
  <path d="M4 4a2 2 0 00-2 2v1h16V6a2 2 0 00-2-2H4z"/>
  <path fill-rule="evenodd" d="M18 9H2v5a2 2 0 002 2h12a2 2 0 002-2V9zM4 13a1 1 0 011-1h1a1 1 0 110 2H5a1 1 0 01-1-1zm5-1a1 1 0 100 2h1a1 1 0 100-2H9z" clip-rule="evenodd"/>
</svg>
